X: 274
T: Jack Haley's Reel
C: BB 1/09
N: for Maureen Haley's husband Jack, who passed away recently.
N: 102267
M: 4/4
L: 1/8
R: reel
Q: 1/4=180
K: Am
D| "Am"EAAG EGAB | "Am"cBAB cdea | "Em"gfge "G"dBGB | "Am" c2 BA "G"GFED |
"Am"E2 AE "F"F2 AF | "G"GABG "Am"cBAB | "C"c2 ec "Dm"afed | "Am"cA"G"BG "Am"A3 :|
B|"C" c2 ec "Dm"defd | "C"e2 ge "F"fgaf | "Am" ea^ga "G"ba=gf | "C"ec "G" dB "Am" cBAB |
"C" c2 ec "Dm"defd | "C"e2 ge "F"fgaf | "Am" ea^ga "G"b=ged | "Am"cA"G"BG "Am"A3 :| 
%%%%%%%%%%%%%%%%%%%%%%%%%%%%%%%%
